apps/16/internet-chat.svg

<?xml version="1.0" encoding="UTF-8" standalone="no"?>
<svg
   xmlns:dc="http://purl.org/dc/elements/1.1/"
   xmlns:cc="http://creativecommons.org/ns#"
   xmlns:rdf="http://www.w3.org/1999/02/22-rdf-syntax-ns#"
   xmlns:svg="http://www.w3.org/2000/svg"
   xmlns="http://www.w3.org/2000/svg"
   xmlns:xlink="http://www.w3.org/1999/xlink"
   version="1.1"
   width="16"
   height="16"
   id="svg6955">
  <defs
     id="defs6957">
    <linearGradient
       x1="22.642942"
       y1="26.966721"
       x2="22.642942"
       y2="30.98424"
       id="linearGradient6883"
       xlink:href="#linearGradient3922"
       gradientUnits="userSpaceOnUse"
       gradientTransform="translate(-0.2938755,2.5949995)" />
    <linearGradient
       id="linearGradient3922">
      <stop
         id="stop3924"
         style="stop-color:#000000;stop-opacity:1"
         offset="0" />
      <stop
         id="stop3926-9"
         style="stop-color:#000000;stop-opacity:0"
         offset="1" />
    </linearGradient>
    <linearGradient
       x1="22.642942"
       y1="26.966721"
       x2="22.642942"
       y2="30.98424"
       id="linearGradient6886"
       xlink:href="#linearGradient3922"
       gradientUnits="userSpaceOnUse"
       gradientTransform="translate(-0.2938755,2.5949995)" />
    <linearGradient
       x1="132.3414"
       y1="2.2922528"
       x2="132.3414"
       y2="33.33271"
       id="linearGradient6784"
       xlink:href="#linearGradient6786"
       gradientUnits="userSpaceOnUse"
       gradientTransform="matrix(0.86503711,0,0,1.0140235,-91.244634,3.7436765)" />
    <linearGradient
       id="linearGradient6786">
      <stop
         id="stop6788"
         style="stop-color:#ffffff;stop-opacity:1"
         offset="0" />
      <stop
         id="stop6790"
         style="stop-color:#ffffff;stop-opacity:0.23529412"
         offset="0.46352294" />
      <stop
         id="stop6792"
         style="stop-color:#ffffff;stop-opacity:0.15686275"
         offset="0.76175833" />
      <stop
         id="stop6794"
         style="stop-color:#ffffff;stop-opacity:0.39215687"
         offset="1" />
    </linearGradient>
    <linearGradient
       x1="-51.786404"
       y1="53.514328"
       x2="-51.786404"
       y2="3.6336823"
       id="linearGradient3394-3"
       xlink:href="#linearGradient3104-8-8-97-9"
       gradientUnits="userSpaceOnUse"
       gradientTransform="matrix(0.80749834,0,0,0.83374395,59.410297,-0.3364531)" />
    <linearGradient
       id="linearGradient3104-8-8-97-9">
      <stop
         id="stop3106-5-4-3-6"
         style="stop-color:#000000;stop-opacity:0.32173914"
         offset="0" />
      <stop
         id="stop3108-4-3-7-0"
         style="stop-color:#000000;stop-opacity:0.27826086"
         offset="1" />
    </linearGradient>
    <linearGradient
       id="linearGradient3600-8-3">
      <stop
         id="stop3828-7-6"
         style="stop-color:#f4f4f4;stop-opacity:1"
         offset="0" />
      <stop
         id="stop3794"
         style="stop-color:#e9e9e9;stop-opacity:1"
         offset="0.6956892" />
      <stop
         id="stop3604-2-5"
         style="stop-color:#dbdbdb;stop-opacity:1"
         offset="1" />
    </linearGradient>
    <linearGradient
       id="linearGradient8838-561-565">
      <stop
         id="stop4621"
         style="stop-color:#0a0a0a;stop-opacity:1"
         offset="0" />
      <stop
         id="stop4623"
         style="stop-color:#0a0a0a;stop-opacity:0"
         offset="1" />
    </linearGradient>
    <radialGradient
       cx="62.625"
       cy="4.625"
       r="10.625"
       fx="62.625"
       fy="4.625"
       id="radialGradient6953"
       xlink:href="#linearGradient8838-561-565"
       gradientUnits="userSpaceOnUse"
       gradientTransform="matrix(2.1647059,0,0,0.7529402,-111.56471,34.517647)" />
    <radialGradient
       cx="24.003401"
       cy="3.0403864"
       r="20.984106"
       fx="24.003401"
       fy="3.0403864"
       id="radialGradient3792"
       xlink:href="#linearGradient3600-8-3"
       gradientUnits="userSpaceOnUse"
       gradientTransform="matrix(0,1.7177641,-1.500366,0,28.565093,-35.624161)" />
    <linearGradient
       xlink:href="#linearGradient3922"
       id="linearGradient3023"
       gradientUnits="userSpaceOnUse"
       gradientTransform="matrix(0.65217391,0,0,0.65217391,0.15616468,2.2227214)"
       x1="22.642942"
       y1="26.966721"
       x2="22.642942"
       y2="30.98424" />
    <radialGradient
       xlink:href="#linearGradient3600-8-3"
       id="radialGradient3034"
       gradientUnits="userSpaceOnUse"
       gradientTransform="matrix(0,1.1202809,-0.97849956,0,18.977231,-22.70282)"
       cx="24.003401"
       cy="3.0403864"
       fx="24.003401"
       fy="3.0403864"
       r="20.984106" />
    <radialGradient
       xlink:href="#linearGradient3600-8-3"
       id="radialGradient3813"
       gradientUnits="userSpaceOnUse"
       gradientTransform="matrix(0,1.1202809,-0.97849956,0,18.977231,-22.70282)"
       cx="24.003401"
       cy="3.0403864"
       fx="24.003401"
       fy="3.0403864"
       r="20.984106" />
    <radialGradient
       xlink:href="#linearGradient4566"
       id="radialGradient4665"
       gradientUnits="userSpaceOnUse"
       gradientTransform="matrix(1,0,0,0.33333333,0,25.333333)"
       cx="26"
       cy="38"
       fx="26"
       fy="38"
       r="18" />
    <linearGradient
       id="linearGradient4566">
      <stop
         style="stop-color:#000000;stop-opacity:1;"
         offset="0"
         id="stop4568" />
      <stop
         style="stop-color:#000000;stop-opacity:0;"
         offset="1"
         id="stop4570" />
    </linearGradient>
    <radialGradient
       xlink:href="#linearGradient4223"
       id="radialGradient4667"
       gradientUnits="userSpaceOnUse"
       gradientTransform="matrix(-3.9999999,0,0,-3.2105264,45.74315,-11.698447)"
       cx="24"
       cy="-0.99997467"
       fx="24"
       fy="-0.99997467"
       r="19" />
    <linearGradient
       id="linearGradient4223">
      <stop
         offset="0"
         style="stop-color:#cdf87e;stop-opacity:1"
         id="stop4225" />
      <stop
         offset="0.26238"
         style="stop-color:#a2e34f;stop-opacity:1"
         id="stop4227" />
      <stop
         offset="0.66093999"
         style="stop-color:#68b723;stop-opacity:1"
         id="stop4229" />
      <stop
         offset="1"
         style="stop-color:#1d7e0d;stop-opacity:1"
         id="stop4231" />
    </linearGradient>
    <linearGradient
       xlink:href="#linearGradient4546"
       id="linearGradient4669"
       gradientUnits="userSpaceOnUse"
       x1="28"
       y1="20"
       x2="28"
       y2="40" />
    <linearGradient
       id="linearGradient4546">
      <stop
         offset="0"
         style="stop-color:#ffffff;stop-opacity:1"
         id="stop4548" />
      <stop
         offset="0.33333334"
         style="stop-color:#ffffff;stop-opacity:0.23529412"
         id="stop4550" />
      <stop
         offset="0.95056331"
         style="stop-color:#ffffff;stop-opacity:0.15686275"
         id="stop4552" />
      <stop
         offset="1"
         style="stop-color:#ffffff;stop-opacity:0.39215687"
         id="stop4554" />
    </linearGradient>
    <clipPath
       clipPathUnits="userSpaceOnUse"
       id="clipPath4631">
      <path
         style="fill:#b84747;fill-opacity:1;stroke:none"
         d="m 18,21 c -4.994649,0 -9,4.005351 -9,9 l 0,2 c 0,4.994649 4.005351,9 9,9 l 18,0 c 0.291005,0 0.595612,-0.03033 0.90625,-0.0625 0.164957,-0.01665 0.343572,-0.0382 0.5,-0.0625 0.199113,-0.03129 0.353176,-0.07756 0.5625,-0.125 0.0355,-0.008 0.03758,0.002 0.0625,0 0.218054,-0.05088 0.442966,-0.09019 0.65625,-0.15625 L 38.96875,40.5 39.1875,40.71875 c 1.321675,1.292865 3.339421,1.62433 5.0625,0.8125 -0.854684,-0.590174 -1.70835,-1.221522 -2.375,-2.0625 l -0.28125,-0.375 0.34375,-0.3125 c 0.12104,-0.106162 0.277237,-0.245985 0.4375,-0.40625 0.208233,-0.208236 0.400103,-0.398273 0.5625,-0.59375 0.07931,-0.09546 0.10524,-0.11495 0.0625,-0.0625 0.15692,-0.192563 0.297542,-0.432061 0.46875,-0.6875 0.09522,-0.141184 0.16811,-0.269097 0.25,-0.40625 0.05562,-0.09374 0.1253,-0.228314 0.21875,-0.40625 0.103006,-0.194932 0.17576,-0.34428 0.21875,-0.4375 0.06734,-0.146884 0.1409,-0.32834 0.21875,-0.53125 0.06354,-0.164982 0.13073,-0.2679 0.15625,-0.34375 0.01249,-0.03725 0.03148,-0.118206 0.0625,-0.21875 0.07714,-0.249066 0.14052,-0.47772 0.1875,-0.6875 0.01928,-0.08779 0.03966,-0.218312 0.0625,-0.34375 0.03827,-0.205597 0.06782,-0.42249 0.09375,-0.65625 -0.0082,0.07577 -0.01322,0.03973 0,-0.09375 C 44.9696,32.588254 45,32.298353 45,32 l 0,-2 c 0,-4.994649 -4.005351,-9 -9,-9 l -18,0 z"
         id="path4633" />
    </clipPath>
    <radialGradient
       xlink:href="#linearGradient4566"
       id="radialGradient4572"
       cx="26"
       cy="38"
       fx="26"
       fy="38"
       r="18"
       gradientTransform="matrix(1,0,0,0.33333333,0,25.333333)"
       gradientUnits="userSpaceOnUse" />
    <radialGradient
       xlink:href="#linearGradient4129"
       id="radialGradient4649"
       gradientUnits="userSpaceOnUse"
       gradientTransform="matrix(3.9999999,0,0,-3.2105264,-141.24316,4.301554)"
       cx="24"
       cy="-0.99997467"
       fx="24"
       fy="-0.99997467"
       r="19" />
    <linearGradient
       id="linearGradient4129">
      <stop
         offset="0"
         style="stop-color:#90dbec;stop-opacity:1"
         id="stop4131" />
      <stop
         offset="0.26238"
         style="stop-color:#42baea;stop-opacity:1"
         id="stop4133" />
      <stop
         offset="0.704952"
         style="stop-color:#3689e6;stop-opacity:1"
         id="stop4135" />
      <stop
         offset="1"
         style="stop-color:#2b63a0;stop-opacity:1"
         id="stop4137" />
    </linearGradient>
    <linearGradient
       xlink:href="#linearGradient4546"
       id="linearGradient4644"
       gradientUnits="userSpaceOnUse"
       x1="28"
       y1="20"
       x2="28"
       y2="40" />
    <linearGradient
       id="linearGradient3093">
      <stop
         offset="0"
         style="stop-color:#ffffff;stop-opacity:1"
         id="stop3095" />
      <stop
         offset="0.33333334"
         style="stop-color:#ffffff;stop-opacity:0.23529412"
         id="stop3097" />
      <stop
         offset="0.95056331"
         style="stop-color:#ffffff;stop-opacity:0.15686275"
         id="stop3099" />
      <stop
         offset="1"
         style="stop-color:#ffffff;stop-opacity:0.39215687"
         id="stop3101" />
    </linearGradient>
    <clipPath
       clipPathUnits="userSpaceOnUse"
       id="clipPath3103">
      <path
         style="fill:#b84747;fill-opacity:1;stroke:none"
         d="m 18,21 c -4.994649,0 -9,4.005351 -9,9 l 0,2 c 0,4.994649 4.005351,9 9,9 l 18,0 c 0.291005,0 0.595612,-0.03033 0.90625,-0.0625 0.164957,-0.01665 0.343572,-0.0382 0.5,-0.0625 0.199113,-0.03129 0.353176,-0.07756 0.5625,-0.125 0.0355,-0.008 0.03758,0.002 0.0625,0 0.218054,-0.05088 0.442966,-0.09019 0.65625,-0.15625 L 38.96875,40.5 39.1875,40.71875 c 1.321675,1.292865 3.339421,1.62433 5.0625,0.8125 -0.854684,-0.590174 -1.70835,-1.221522 -2.375,-2.0625 l -0.28125,-0.375 0.34375,-0.3125 c 0.12104,-0.106162 0.277237,-0.245985 0.4375,-0.40625 0.208233,-0.208236 0.400103,-0.398273 0.5625,-0.59375 0.07931,-0.09546 0.10524,-0.11495 0.0625,-0.0625 0.15692,-0.192563 0.297542,-0.432061 0.46875,-0.6875 0.09522,-0.141184 0.16811,-0.269097 0.25,-0.40625 0.05562,-0.09374 0.1253,-0.228314 0.21875,-0.40625 0.103006,-0.194932 0.17576,-0.34428 0.21875,-0.4375 0.06734,-0.146884 0.1409,-0.32834 0.21875,-0.53125 0.06354,-0.164982 0.13073,-0.2679 0.15625,-0.34375 0.01249,-0.03725 0.03148,-0.118206 0.0625,-0.21875 0.07714,-0.249066 0.14052,-0.47772 0.1875,-0.6875 0.01928,-0.08779 0.03966,-0.218312 0.0625,-0.34375 0.03827,-0.205597 0.06782,-0.42249 0.09375,-0.65625 -0.0082,0.07577 -0.01322,0.03973 0,-0.09375 C 44.9696,32.588254 45,32.298353 45,32 l 0,-2 c 0,-4.994649 -4.005351,-9 -9,-9 l -18,0 z"
         id="path3105" />
    </clipPath>
    <radialGradient
       r="18"
       fy="38"
       fx="26"
       cy="38"
       cx="26"
       gradientTransform="matrix(1,0,0,0.33333333,0,25.333333)"
       gradientUnits="userSpaceOnUse"
       id="radialGradient3115"
       xlink:href="#linearGradient4566" />
    <radialGradient
       xlink:href="#linearGradient4129"
       id="radialGradient3893"
       cx="16"
       cy="6.5"
       fx="16"
       fy="6.5"
       r="13.5"
       gradientTransform="matrix(-7.8155022e-8,3.4259259,-4.4444444,-1.013903e-7,44.88889,-42.814815)"
       gradientUnits="userSpaceOnUse" />
    <radialGradient
       xlink:href="#linearGradient4129"
       id="radialGradient3915"
       gradientUnits="userSpaceOnUse"
       gradientTransform="matrix(-7.8155022e-8,3.4259259,-4.4444444,-1.013903e-7,44.88889,-42.814815)"
       cx="16"
       cy="6.5"
       fx="16"
       fy="6.5"
       r="13.5" />
    <radialGradient
       xlink:href="#linearGradient4129"
       id="radialGradient3918"
       gradientUnits="userSpaceOnUse"
       gradientTransform="matrix(-7.8155022e-8,3.4259259,-4.4444444,-1.013903e-7,44.88889,-42.814815)"
       cx="16"
       cy="6.5"
       fx="16"
       fy="6.5"
       r="13.5" />
    <clipPath
       clipPathUnits="userSpaceOnUse"
       id="clipPath3932">
      <path
         style="fill:#000000;fill-opacity:1;stroke:none"
         d="M 9.5,13 C 6.4443514,13 4,15.444351 4,18.5 l 0,3 C 4,24.555649 6.4443514,27 9.5,27 l 14,0 c 0.219638,0 0.431898,-0.0097 0.625,-0.03125 l 0.21875,-0.03125 0.1875,0.15625 c 0.904516,0.812057 2.163157,0.95166 3.34375,0.59375 -0.424928,-0.320003 -0.881722,-0.595637 -1.25,-1 L 26.25,26.28125 26.71875,25.9375 C 28.101099,24.936953 29,23.340469 29,21.5 l 0,-3 C 29,15.444351 26.555649,13 23.5,13 l -14,0 z"
         id="path3934" />
    </clipPath>
    <linearGradient
       xlink:href="#linearGradient4546"
       id="linearGradient3952"
       gradientUnits="userSpaceOnUse"
       x1="16"
       y1="12"
       x2="16"
       y2="28" />
    <clipPath
       clipPathUnits="userSpaceOnUse"
       id="clipPath3061">
      <path
         id="path3063"
         d="M 9.5,14 C 6.4443514,14 4,16.444351 4,19.5 l 0,2 C 4,24.555649 6.4443514,27 9.5,27 l 10,0 c 0.219638,0 0.431898,-0.0097 0.625,-0.03125 l 0.21875,-0.03125 0.1875,0.15625 c 0.904516,0.812057 2.163157,0.95166 3.34375,0.59375 -0.424928,-0.320003 -0.881722,-0.595637 -1.25,-1 L 22.25,26.28125 22.71875,25.9375 C 24.101099,24.936953 25,23.340469 25,21.5 l 0,-2 C 25,16.444351 22.555649,14 19.5,14 z"
         style="fill:#000000;fill-opacity:1;stroke:none" />
    </clipPath>
    <linearGradient
       xlink:href="#linearGradient4546"
       id="linearGradient3067"
       gradientUnits="userSpaceOnUse"
       x1="16"
       y1="12"
       x2="16"
       y2="28" />
    <clipPath
       clipPathUnits="userSpaceOnUse"
       id="clipPath3075">
      <path
         style="fill:#000000;fill-opacity:1;stroke:none"
         d="M 9.5,15 C 6.4443514,15 4,17.444351 4,20.5 l 0,1 C 4,24.555649 6.4443514,27 9.5,27 l 6,0 c 0.219638,0 0.431898,-0.0097 0.625,-0.03125 l 0.21875,-0.03125 0.1875,0.15625 c 0.904516,0.812057 2.163157,0.95166 3.34375,0.59375 -0.424928,-0.320003 -0.881722,-0.595637 -1.25,-1 L 18.25,26.28125 18.71875,25.9375 C 20.101099,24.936953 21,23.340469 21,21.5 l 0,-1 C 21,17.444351 18.555649,15 15.5,15 z"
         id="path3077" />
    </clipPath>
    <linearGradient
       xlink:href="#linearGradient4546"
       id="linearGradient3081"
       gradientUnits="userSpaceOnUse"
       x1="16"
       y1="12"
       x2="16"
       y2="28" />
    <radialGradient
       xlink:href="#linearGradient4129"
       id="radialGradient3873"
       gradientUnits="userSpaceOnUse"
       gradientTransform="matrix(-2.8333331,2.6156123e-7,-2.4680868e-7,-2.6666669,34.499998,16.666663)"
       cx="9"
       cy="4"
       fx="9"
       fy="4"
       r="6" />
    <radialGradient
       xlink:href="#linearGradient4223"
       id="radialGradient3886"
       gradientUnits="userSpaceOnUse"
       gradientTransform="matrix(3.8333334,3.1370928e-7,3.1548001e-7,-3.8333335,-27.500001,16.333347)"
       cx="9"
       cy="4"
       fx="9"
       fy="4"
       r="6" />
    <clipPath
       clipPathUnits="userSpaceOnUse"
       id="clipPath3899">
      <path
         style="fill:#000000;fill-opacity:1;stroke:none"
         d="m 7,6 c -2.2139054,0 -4,1.7860946 -4,4 0,2.213905 1.7860946,4 4,4 l 4,0 c 0.224733,0 0.45896,-0.04609 0.71875,-0.09375 a 0.50005,0.50005 0 0 1 0.46875,0.15625 c 0.519367,0.57626 1.266145,0.72408 2.03125,0.65625 C 13.898868,14.446295 13.517711,14.249493 13.25,13.90625 A 0.50005,0.50005 0 0 1 13.34375,13.1875 C 14.332655,12.453644 15,11.314997 15,10 15,7.7860946 13.213905,6 11,6 L 7,6 z"
         id="path3901" />
    </clipPath>
    <linearGradient
       xlink:href="#linearGradient4546"
       id="linearGradient3909"
       x1="9"
       y1="6"
       x2="9"
       y2="14"
       gradientUnits="userSpaceOnUse" />
    <linearGradient
       xlink:href="#linearGradient4546"
       id="linearGradient3913"
       gradientUnits="userSpaceOnUse"
       x1="9"
       y1="6"
       x2="9"
       y2="14" />
  </defs>
  <metadata
     id="metadata6960">
    <rdf:RDF>
      <cc:Work
         rdf:about="">
        <dc:format>image/svg+xml</dc:format>
        <dc:type
           rdf:resource="http://purl.org/dc/dcmitype/StillImage" />
        <dc:title />
      </cc:Work>
    </rdf:RDF>
  </metadata>
  <path
     id="path3884"
     d="m 9,0.50001743 c 2.484351,0 4.5,2.01564857 4.5,4.49999997 0,2.484351 -2.015649,4.5 -4.5,4.5 l -4,0 c -0.278759,0 -0.547729,-0.045181 -0.8125,-0.09375 C 3.31021,10.379664 1.868085,10.645951 0.65625,10.062517 1.294286,9.6885174 1.868605,9.2029714 2.34375,8.5937674 1.238589,7.7736384 0.5,6.4812274 0.5,5.0000174 0.5,2.515666 2.515649,0.50001743 5,0.50001743 l 4,0 z"
     style="fill:url(#radialGradient3886);fill-opacity:1;stroke:#067d00;stroke-linejoin:round;stroke-opacity:0.49803922" />
  <path
     clip-path="url(#clipPath3899)"
     style="fill:none;stroke:url(#linearGradient3913);stroke-width:2;stroke-linejoin:round;stroke-miterlimit:4;stroke-opacity:0.49803922;stroke-dasharray:none"
     d="m 7,6 c -2.2139054,0 -4,1.7860946 -4,4 0,2.213905 1.7860946,4 4,4 l 4,0 c 0.224733,0 0.45896,-0.04609 0.71875,-0.09375 a 0.50005,0.50005 0 0 1 0.46875,0.15625 c 0.519367,0.57626 1.266145,0.72408 2.03125,0.65625 C 13.898868,14.446295 13.517711,14.249493 13.25,13.90625 A 0.50005,0.50005 0 0 1 13.34375,13.1875 C 14.332655,12.453644 15,11.314997 15,10 15,7.7860946 13.213905,6 11,6 L 7,6 z"
     id="path3911"
     transform="matrix(-1,0,0,1,16,-5)" />
  <path
     style="fill:url(#radialGradient3873);fill-opacity:1;stroke:#00537d;stroke-opacity:0.49803922000000000;stroke-linejoin:round"
     d="M 7 5.5 C 4.5156486 5.5 2.5 7.5156486 2.5 10 C 2.5 12.484351 4.5156486 14.5 7 14.5 L 11 14.5 C 11.278759 14.5 11.547729 14.454819 11.8125 14.40625 C 12.68979 15.379647 14.131915 15.645934 15.34375 15.0625 C 14.705714 14.6885 14.131395 14.202954 13.65625 13.59375 C 14.761411 12.773621 15.5 11.48121 15.5 10 C 15.5 7.5156486 13.484351 5.5 11 5.5 L 7 5.5 z "
     id="rect3086" />
  <path
     id="path3897"
     d="M 7 6 C 4.7860946 6 3 7.7860946 3 10 C 3 12.213905 4.7860946 14 7 14 L 11 14 C 11.224733 14 11.45896 13.953905 11.71875 13.90625 A 0.50005 0.50005 0 0 1 12.1875 14.0625 C 12.706867 14.63876 13.453645 14.78658 14.21875 14.71875 C 13.898868 14.446295 13.517711 14.249493 13.25 13.90625 A 0.50005 0.50005 0 0 1 13.34375 13.1875 C 14.332655 12.453644 15 11.314997 15 10 C 15 7.7860946 13.213905 6 11 6 L 7 6 z "
     style="fill:none;fill-opacity:1;stroke:url(#linearGradient3909);stroke-opacity:0.49803922000000000;stroke-linejoin:round;stroke-width:2;stroke-miterlimit:4;stroke-dasharray:none"
     clip-path="url(#clipPath3899)" />
</svg>

<svg xmlns="http://www.w3.org/2000/svg" xmlns:xlink="http://www.w3.org/1999/xlink" viewBox="0 0 16 16"><defs><linearGradient id="b"><stop offset="0" stop-color="#cdf87e"/><stop offset=".262" stop-color="#a2e34f"/><stop offset=".661" stop-color="#68b723"/><stop offset="1" stop-color="#1d7e0d"/></linearGradient><linearGradient id="c"><stop offset="0" stop-color="#fff"/><stop offset=".333" stop-color="#fff" stop-opacity=".235"/><stop offset=".951" stop-color="#fff" stop-opacity=".157"/><stop offset="1" stop-color="#fff" stop-opacity=".392"/></linearGradient><linearGradient id="a"><stop offset="0" stop-color="#90dbec"/><stop offset=".262" stop-color="#42baea"/><stop offset=".705" stop-color="#3689e6"/><stop offset="1" stop-color="#2b63a0"/></linearGradient><radialGradient xlink:href="#a" id="g" gradientUnits="userSpaceOnUse" gradientTransform="matrix(-2.83333 0 0 -2.66667 34.5 16.667)" cx="9" cy="4" fx="9" fy="4" r="6"/><radialGradient xlink:href="#b" id="d" gradientUnits="userSpaceOnUse" gradientTransform="matrix(3.83333 0 0 -3.83333 -27.5 16.333)" cx="9" cy="4" fx="9" fy="4" r="6"/><clipPath id="e"><path d="M7 6c-2.214 0-4 1.786-4 4s1.786 4 4 4h4c.225 0 .46-.046.72-.094a.5.5 0 0 1 .467.156c.52.577 1.267.725 2.032.657-.32-.28-.708-.47-.97-.82a.5.5 0 0 1 .09-.72C14.33 12.45 15 11.31 15 10c0-2.216-1.79-4-4-4H7z"/></clipPath><linearGradient xlink:href="#c" id="h" x1="9" y1="6" x2="9" y2="14" gradientUnits="userSpaceOnUse"/><linearGradient xlink:href="#c" id="f" gradientUnits="userSpaceOnUse" x1="9" y1="6" x2="9" y2="14"/></defs><path d="M9 .5a4.5 4.5 0 0 1 0 9H5a4.44 4.44 0 0 1-.813-.094c-.877.974-2.32 1.24-3.53.657a5.92 5.92 0 0 0 1.687-1.47C1.24 7.773.5 6.483.5 5A4.5 4.5 0 0 1 5 .5h4z" fill="url(#d)" stroke="#067d00" stroke-linejoin="round" stroke-opacity=".498"/><path clip-path="url(#e)" d="M7 6c-2.214 0-4 1.786-4 4s1.786 4 4 4h4c.225 0 .46-.046.72-.094a.5.5 0 0 1 .467.156c.52.577 1.267.725 2.032.657-.32-.28-.708-.47-.97-.82a.5.5 0 0 1 .09-.72C14.33 12.45 15 11.31 15 10c0-2.216-1.79-4-4-4H7z" transform="matrix(-1 0 0 1 16 -5)" fill="none" stroke="url(#f)" stroke-width="2" stroke-linejoin="round" stroke-opacity=".498"/><path d="M7 5.5a4.5 4.5 0 0 0 0 9h4c.28 0 .548-.045.813-.094.877.974 2.32 1.24 3.53.656a5.92 5.92 0 0 1-1.687-1.468C14.76 12.774 15.5 11.48 15.5 10A4.5 4.5 0 0 0 11 5.5H7z" fill="url(#g)" stroke="#00537d" stroke-opacity=".498" stroke-linejoin="round"/><path d="M7 6c-2.214 0-4 1.786-4 4s1.786 4 4 4h4c.225 0 .46-.046.72-.094a.5.5 0 0 1 .467.156c.52.577 1.267.725 2.032.657-.32-.28-.708-.47-.97-.82a.5.5 0 0 1 .09-.72C14.33 12.45 15 11.31 15 10c0-2.216-1.79-4-4-4H7z" clip-path="url(#e)" fill="none" stroke="url(#h)" stroke-opacity=".498" stroke-linejoin="round" stroke-width="2"/></svg>
